assets/MarketChannelLogos/SYSOTEL_ICON.svg

<svg xmlns="http://www.w3.org/2000/svg" width="596" height="596" fill="none"><g clip-path="url(#a)"><path fill="#fff" d="M584.9 375.9c.5-2 1.1-4 1.6-6z"/><path fill="url(#b)" d="M286.021 147.058v.047a65.91 65.91 0 0 0-.021 1.541c.017 8.11 1.639 16.33 5.311 23.017 2.012 3.605 4.659 6.806 8.056 9.388 14.908 11.302 46.824 29.823 75.837 45.949 8.897-5.078 32.058-18.181 35.044-19.871 21.011-11.871 36.15-33.148 36.734-58.602.013-.573.021-1.151.017-1.728-.077-37.53-30.883-67.884-68.797-67.799-12.428.026-24.075 3.32-34.117 9.057-.026.017-.056.03-.082.046-9.24 5.308-26.091 14.997-36.343 20.89-13.471 7.826-21.188 22.211-21.639 38.065"/><path fill="#EE4A4C" d="m154.795 420.65 10.649-6.251c8.198-4.819 10.995-15.446 6.235-23.743-4.76-8.3-15.266-11.121-23.472-6.306l-10.65 6.251c-8.206 4.815-10.994 15.442-6.234 23.743 4.76 8.3 15.27 11.121 23.472 6.306M176.644 464.727c-4.835-8.369-15.507-11.212-23.843-6.358l-17.108 9.967c-8.336 4.854-11.169 15.568-6.333 23.937 4.835 8.369 15.507 11.212 23.843 6.358l17.108-9.967c8.327-4.854 11.164-15.573 6.333-23.937M202.799 473.366l-17.107 9.968c-8.335 4.854-11.168 15.569-6.332 23.938 4.835 8.37 15.506 11.214 23.842 6.359l17.107-9.967c8.331-4.855 11.168-15.57 6.332-23.939-4.835-8.365-15.506-11.209-23.842-6.359"/><path fill="url(#c)" d="m332.289 436.295-.141.082c12.95-8.311 21.89-23.023 21.852-39.601a60.157 60.157 0 0 0-.175-4.473c-.85-11.029-4.814-21.642-12.776-28.014l-.055-.043c-12.272-9.519-36.622-24.33-61.524-38.747-8.888-5.107-14.992-8.499-14.992-8.499l-41.115 23.657c-.603.262-1.201.558-1.782.892l-36.814 21.196c-7.385 4.254-10.499 13.105-7.816 20.901a17.513 17.513 0 0 0 1.362 3.01c4.793 8.392 15.458 11.295 23.817 6.479l16.269-9.365c-7.363 5.129-9.717 15.146-5.176 23.096a17.421 17.421 0 0 0 16.406 8.756 17.08 17.08 0 0 0-4.66 1.853l-36.815 21.196a17.37 17.37 0 0 0-6.731 6.994c-2.704 5.132-2.815 11.505.277 16.916 4.712 8.246 15.087 11.184 23.373 6.724.145-.082.299-.159.444-.24l34.017-19.588c-6.954 5.227-9.09 14.961-4.66 22.718a17.379 17.379 0 0 0 6.932 6.745c5.117 2.732 11.481 2.848 16.884-.261l12.545-7.226 5.583-3.216c.444-.287.892-.566 1.332-.857h.005l33.17-19.04 17.76-10.192 3.067-1.754h.005-.005c.047-.039.09-.069.137-.099"/><path fill="#EE4A4C" d="M434.106 260.4c-.213-.128-.427-.248-.64-.376 0 0-27.537-14.622-58.383-32.007-28.833-16.252-60.553-34.917-75.368-46.308-3.381-2.597-6.012-5.828-8.007-9.461-3.743-6.803-5.261-15.023-5.278-23.196 0-.518.004-1.036.021-1.554v-.047c.448-15.978 8.114-30.475 21.505-38.357.051-.03.102-.064.153-.094l-89.211 51.99c-23.534 13.505-46.962 34.878-46.898 65.294.056 23.997 12.381 45.071 30.995 57.292.81.556 39.398 21.266 76.746 42.88 18.298 10.509 48.428 28.293 61.41 38.665l.051.038c8.041 6.248 11.929 16.933 12.756 27.96a59.98 59.98 0 0 1 .179 4.467c.034 15.353-7.371 28.965-18.797 37.441-.452.33-.874.629-1.284.92l-.004.005a47.36 47.36 0 0 1-1.556 1.048l101.017-57.758c.043-.022.085-.047.128-.073 20.579-11.853 34.418-34.155 34.359-59.667-.056-25.225-13.664-47.232-33.894-59.102"/></g><defs><linearGradient id="b" x1="462.698" x2="242.153" y1="86.409" y2="242.16" gradientUnits="userSpaceOnUse"><stop stop-color="#EE4A4C"/><stop offset=".999" stop-color="#631F1F"/></linearGradient><linearGradient id="c" x1="176.052" x2="390.913" y1="399.177" y2="398.699" gradientUnits="userSpaceOnUse"><stop stop-color="#EE4A4C"/><stop offset=".999" stop-color="#631F1F"/></linearGradient><clipPath id="a"><path fill="#fff" d="M0 0h595.3v595.3H0z"/></clipPath></defs></svg>

<svg width="596" height="596" viewBox="0 0 596 596" fill="none" xmlns="http://www.w3.org/2000/svg">
<g clip-path="url(#clip0_11_677)">
<path d="M584.9 375.9C585.4 373.9 586 371.9 586.5 369.9L584.9 375.9Z" fill="white"/>
<path d="M286.021 147.058C286.021 147.075 286.021 147.088 286.021 147.105C286.009 147.618 286 148.132 286 148.646C286.017 156.756 287.639 164.976 291.311 171.663C293.323 175.268 295.97 178.469 299.367 181.051C314.275 192.353 346.191 210.874 375.204 227C384.101 221.922 407.262 208.819 410.248 207.129C431.259 195.258 446.398 173.981 446.982 148.527C446.995 147.954 447.003 147.376 446.999 146.799C446.922 109.269 416.116 78.9153 378.202 79.0002C365.774 79.0257 354.127 82.3205 344.085 88.0567C344.059 88.0737 344.029 88.0864 344.003 88.1034C334.763 93.4108 317.912 103.1 307.66 108.993C294.189 116.819 286.472 131.204 286.021 147.058Z" fill="url(#paint0_linear_11_677)"/>
<path d="M154.795 420.65L165.444 414.399C173.642 409.58 176.439 398.953 171.679 390.656C166.919 382.356 156.413 379.535 148.207 384.35L137.557 390.601C129.351 395.416 126.563 406.043 131.323 414.344C136.083 422.644 146.593 425.465 154.795 420.65Z" fill="#EE4A4C"/>
<path d="M176.644 464.727C171.809 456.358 161.137 453.515 152.801 458.369L135.693 468.336C127.357 473.19 124.524 483.904 129.36 492.273C134.195 500.642 144.867 503.485 153.203 498.631L170.311 488.664C178.638 483.81 181.475 473.091 176.644 464.727Z" fill="#EE4A4C"/>
<path d="M202.799 473.366L185.692 483.334C177.357 488.188 174.524 498.903 179.36 507.272C184.195 515.642 194.866 518.486 203.202 513.631L220.309 503.664C228.64 498.809 231.477 488.094 226.641 479.725C221.806 471.36 211.135 468.516 202.799 473.366Z" fill="#EE4A4C"/>
<path d="M332.289 436.295L332.148 436.377C345.098 428.066 354.038 413.354 354 396.776C353.996 395.284 353.94 393.791 353.825 392.303C352.975 381.274 349.011 370.661 341.049 364.289C341.032 364.276 341.011 364.259 340.994 364.246C328.722 354.727 304.372 339.916 279.47 325.499C270.582 320.392 264.478 317 264.478 317L223.363 340.657C222.76 340.919 222.162 341.215 221.581 341.549L184.767 362.745C177.382 366.999 174.268 375.85 176.951 383.646C177.305 384.671 177.754 385.683 178.313 386.656C183.106 395.048 193.771 397.951 202.13 393.135L218.399 383.77C211.036 388.899 208.682 398.916 213.223 406.866C216.67 412.899 223.153 416.098 229.629 415.622C228.031 415.999 226.464 416.608 224.969 417.475L188.154 438.671C185.186 440.382 182.909 442.834 181.423 445.665C178.719 450.797 178.608 457.17 181.7 462.581C186.412 470.827 196.787 473.765 205.073 469.305C205.218 469.223 205.372 469.146 205.517 469.065L239.534 449.477C232.58 454.704 230.444 464.438 234.874 472.195C236.569 475.167 239.004 477.444 241.806 478.94C246.923 481.672 253.287 481.788 258.69 478.679L271.235 471.453L276.818 468.237C277.262 467.95 277.71 467.671 278.15 467.38H278.155L311.325 448.34L329.085 438.148L332.152 436.394C332.152 436.394 332.152 436.394 332.157 436.394C332.157 436.394 332.157 436.394 332.152 436.394C332.199 436.355 332.242 436.325 332.289 436.295Z" fill="url(#paint1_linear_11_677)"/>
<path d="M434.106 260.4C433.893 260.272 433.679 260.152 433.466 260.024C433.466 260.024 405.929 245.402 375.083 228.017C346.25 211.765 314.53 193.1 299.715 181.709C296.334 179.112 293.703 175.881 291.708 172.248C287.965 165.445 286.447 157.225 286.43 149.052C286.43 148.534 286.434 148.016 286.451 147.498C286.451 147.481 286.451 147.468 286.451 147.451C286.899 131.473 294.565 116.976 307.956 109.094C308.007 109.064 308.058 109.03 308.109 109L218.898 160.99C195.364 174.495 171.936 195.868 172 226.284C172.056 250.281 184.381 271.355 202.995 283.576C203.805 284.132 242.393 304.842 279.741 326.456C298.039 336.965 328.169 354.749 341.151 365.121C341.168 365.134 341.185 365.147 341.202 365.159C349.243 371.407 353.131 382.092 353.958 393.119C354.073 394.603 354.133 396.097 354.137 397.586C354.171 412.939 346.766 426.551 335.34 435.027C334.888 435.357 334.466 435.656 334.056 435.947L334.052 435.952C333.498 436.337 332.974 436.696 332.496 437L433.513 379.242C433.556 379.22 433.598 379.195 433.641 379.169C454.22 367.316 468.059 345.014 468 319.502C467.944 294.277 454.336 272.27 434.106 260.4Z" fill="#EE4A4C"/>
</g>
<defs>
<linearGradient id="paint0_linear_11_677" x1="462.698" y1="86.4093" x2="242.153" y2="242.16" gradientUnits="userSpaceOnUse">
<stop stop-color="#EE4A4C"/>
<stop offset="0.9994" stop-color="#631F1F"/>
</linearGradient>
<linearGradient id="paint1_linear_11_677" x1="176.052" y1="399.177" x2="390.913" y2="398.699" gradientUnits="userSpaceOnUse">
<stop stop-color="#EE4A4C"/>
<stop offset="0.9994" stop-color="#631F1F"/>
</linearGradient>
<clipPath id="clip0_11_677">
<rect width="595.3" height="595.3" fill="white"/>
</clipPath>
</defs>
</svg>
